!!! OTL: Literature84
!!! Chapter: 5
!!! Section: II
!!! Page: 363
!!! Mode: 
!!! Encoder: ESM
**kern
*staff1
*I"Piano
=1-
*clefG2
*k[f#c#g#d#]
*E:
*M3/4
2r
8.B/L
16B/Jk
=2
4.e/
8B/
8e/L
8f#/J
=3
4f#/
4g#/
4b\
=4
4a/
4g#/
4f#/
=5
2b\
4g#/
=6
4e/
4d#/
4e/
=7
4e/
4.f#/
8g#/
=8
4.a/
8g#/
8f#/L
8e/J
=9
4e/
4d#/
8.B/L
16B/Jk
=10
4.e/
8B/
8e/L
8f#/J
=11
4f#/
4g#/
4b\
=12
!!linebreak:original
4a/
4g#/
4f#/
=13
2b\
4g#/
=14
4e/
4d#/
4e/
=15
4e/
4.f#/
8g#/
=16
4.a/
8f#/
8e/L
8d#/J
=17
2e/
4r
==
*-
